Arcticons/scalable/apps/appops.svg

<svg viewBox="0 0 48 48" xmlns="http://www.w3.org/2000/svg">
 <defs>
  <style>.a{fill:none;stroke:#fff;stroke-linecap:round;stroke-linejoin:round;}</style>
 </defs>
 <path class="a" d="m38.18 11.78 2.45-2.41a2.85 2.85 0 0 0 0-4 2.87 2.87 0 0 0-4 0l-2.46 2.41a17.41 17.41 0 0 0-20.34 0l-2.43-2.42a2.88 2.88 0 0 0-4.06 0 2.85 2.85 0 0 0 0 4l2.44 2.41a17.39 17.39 0 0 0-3.27 10.23v19.66a1.84 1.84 0 0 0 1.84 1.84h31.3a1.84 1.84 0 0 0 1.84-1.84v-19.66a17.42 17.42 0 0 0-3.31-10.22zm-21.54 13a3.22 3.22 0 1 1 3.22-3.22 3.22 3.22 0 0 1-3.22 3.21zm14.72 0a3.22 3.22 0 1 1 3.22-3.22 3.22 3.22 0 0 1-3.22 3.21z"/>
 <path class="a" d="M28.14,34.36a3.31,3.31,0,0,0,0-.55,3.27,3.27,0,0,0,0-.54l1.19-.92a.29.29,0,0,0,.06-.36l-1.11-1.94a.28.28,0,0,0-.34-.12l-1.39.57A4.28,4.28,0,0,0,25.6,30l-.21-1.48a.29.29,0,0,0-.28-.24H22.88a.28.28,0,0,0-.27.24L22.4,30a3.92,3.92,0,0,0-.95.55l-1.39-.57a.3.3,0,0,0-.34.12L18.61,32a.29.29,0,0,0,.06.36l1.18.92a3.73,3.73,0,0,0,0,1.09l-1.18.92a.29.29,0,0,0-.06.36l1.11,1.93a.28.28,0,0,0,.34.12l1.39-.56a4.28,4.28,0,0,0,.95.55l.21,1.48a.27.27,0,0,0,.27.23h2.23a.28.28,0,0,0,.28-.23l.21-1.48a3.86,3.86,0,0,0,.94-.55l1.39.56a.27.27,0,0,0,.34-.12l1.12-1.93a.28.28,0,0,0-.07-.36ZM24,35.77a2,2,0,1,1,1.95-2A2,2,0,0,1,24,35.77Z"/>
</svg>

<svg xmlns="http://www.w3.org/2000/svg" viewBox="0 0 48 48"><defs><style>.a{fill:none;stroke:#fff;stroke-linecap:round;stroke-linejoin:round;}</style></defs><path class="a" d="M38.18,11.78l2.45-2.41a2.85,2.85,0,0,0,0-4v0a2.87,2.87,0,0,0-4,0L34.17,7.78a17.41,17.41,0,0,0-20.34,0L11.4,5.36a2.88,2.88,0,0,0-4.06,0v0a2.85,2.85,0,0,0,0,4l2.44,2.41A17.39,17.39,0,0,0,6.51,22V41.66A1.84,1.84,0,0,0,8.35,43.5h31.3a1.84,1.84,0,0,0,1.84-1.84V22A17.42,17.42,0,0,0,38.18,11.78Zm-21.54,13a3.22,3.22,0,1,1,3.22-3.22A3.22,3.22,0,0,1,16.64,24.77Zm14.72,0a3.22,3.22,0,1,1,3.22-3.22A3.22,3.22,0,0,1,31.36,24.77Z"/><path class="a" d="M28.14,34.36a3.31,3.31,0,0,0,0-.55,3.27,3.27,0,0,0,0-.54l1.19-.92a.29.29,0,0,0,.06-.36l-1.11-1.94a.28.28,0,0,0-.34-.12l-1.39.57A4.28,4.28,0,0,0,25.6,30l-.21-1.48a.29.29,0,0,0-.28-.24H22.88a.28.28,0,0,0-.27.24L22.4,30a3.92,3.92,0,0,0-.95.55l-1.39-.57a.3.3,0,0,0-.34.12L18.61,32a.29.29,0,0,0,.06.36l1.18.92a3.73,3.73,0,0,0,0,1.09l-1.18.92a.29.29,0,0,0-.06.36l1.11,1.93a.28.28,0,0,0,.34.12l1.39-.56a4.28,4.28,0,0,0,.95.55l.21,1.48a.27.27,0,0,0,.27.23h2.23a.28.28,0,0,0,.28-.23l.21-1.48a3.86,3.86,0,0,0,.94-.55l1.39.56a.27.27,0,0,0,.34-.12l1.12-1.93a.28.28,0,0,0-.07-.36ZM24,35.77a2,2,0,1,1,1.95-2A2,2,0,0,1,24,35.77Z"/></svg>
